.local/share/icons/Gruvbox-Plus-Dark/actions/16/text-remove-from-path.svg

<svg width="16" height="16" version="1.1" xmlns="http://www.w3.org/2000/svg">
  <defs>
    <style id="current-color-scheme" type="text/css">.ColorScheme-Text { color:#ebdbb2; } .ColorScheme-Highlight { color:#458588; }</style>
  </defs>
  <path class="ColorScheme-Text" d="m10 9v1.414l1.586 1.586-1.586 1.586v1.414h1.414l1.586-1.586 1.586 1.586h1.414v-1.414l-1.586-1.586 1.586-1.586v-1.414h-1.414l-1.586 1.586-1.586-1.586zm-3 0c-3.878 0-7 3.122-7 7h1c0-3.324 2.676-6 6-6h2v-1zm2-9v8h1v-0.502c0.4325 0.3253 0.9588 0.5014 1.5 0.502 1.381 0 2.5-1.119 2.5-2.5s-1.119-2.5-2.5-2.5c-0.5414 0.001125-1.068 0.178-1.5 0.5039v-3.504zm2.5 4c0.8284 0 1.5 0.6716 1.5 1.5s-0.6716 1.5-1.5 1.5-1.5-0.6716-1.5-1.5 0.6716-1.5 1.5-1.5zm-7-1c-1.381 0-2.5 1.119-2.5 2.5s1.119 2.5 2.5 2.5c0.5414-0.001125 1.068-0.178 1.5-0.5039v0.5039h1v-5h-1v0.502c-0.4325-0.3253-0.9588-0.5014-1.5-0.502zm0 1c0.8284 0 1.5 0.6716 1.5 1.5s-0.6716 1.5-1.5 1.5-1.5-0.6716-1.5-1.5 0.6716-1.5 1.5-1.5z" fill="currentColor"/>
</svg>

<svg xmlns="http://www.w3.org/2000/svg" width="16" height="16" version="1.1">
 <defs>
  <style id="current-color-scheme" type="text/css">
   .ColorScheme-Text { color:#565656; } .ColorScheme-Highlight { color:#4285f4; }
  </style>
 </defs>
 <path style="fill:currentColor" class="ColorScheme-Text" d="M 10,10 V 11.414 L 11.586,13 10,14.586 V 16 H 11.414 L 13,14.414 14.586,16 H 16 V 14.586 L 14.414,13 16,11.414 V 10 H 14.586 L 13,11.586 11.414,10 Z M 7,9 C 3.122,9 0,12.122 0,16 H 1 C 1,12.676 3.676,10 7,10 H 9 V 9 Z M 9,0 V 5.5 8 H 10 V 7.498 A 2.5,2.5 0 0 0 11.5,8 2.5,2.5 0 0 0 14,5.5 2.5,2.5 0 0 0 11.5,3 2.5,2.5 0 0 0 10,3.5039 V 0 Z M 11.5,4 A 1.5,1.5 0 0 1 13,5.5 1.5,1.5 0 0 1 11.5,7 1.5,1.5 0 0 1 10,5.5 1.5,1.5 0 0 1 11.5,4 Z M 4.5,3 A 2.5,2.5 0 0 0 2,5.5 2.5,2.5 0 0 0 4.5,8 2.5,2.5 0 0 0 6,7.4961 V 8 H 7 V 5.5 3 H 6 V 3.502 A 2.5,2.5 0 0 0 4.5,3 Z M 4.5,4 A 1.5,1.5 0 0 1 6,5.5 1.5,1.5 0 0 1 4.5,7 1.5,1.5 0 0 1 3,5.5 1.5,1.5 0 0 1 4.5,4 Z"/>
</svg>
